X:1
T:The Catchgate Crapshooter
C:Ian Wilson, Accolade Music 1993
M:C|
R:32 Bar Reel
K:G
"G"B3g2 "C"e c2|"G"B3g2 "C"e c2|"G"B2B2c2^c2|"D" d8|
"G"f2g2^c2d2 | "G"^A2B2F2G2 | "D7" DFAd- dA F2| "G"G6 "D7" d2:|
"G"^AB2AB2G2 | "C7"G2 E4 G2|"G7" DE G2 cB G2 | "D7" A8|
"G"^A B2 A B2 G2 | "C7"G2 E4 E2| "G" DEGD "C7" EGDE | BG A2 "G" G4 :|
